public/media/icons-technologies/SASS.svg

<svg width="140" height="140" viewBox="0 0 140 140" fill="none" xmlns="http://www.w3.org/2000/svg">
<g clip-path="url(#clip0_205_1389)">
<path d="M113.266 76.7031C109.07 76.7268 105.438 77.7344 102.391 79.2346C101.266 77.008 100.141 75.0625 99.9534 73.6096C99.7424 71.9221 99.4846 70.8906 99.7424 68.8752C100 66.8594 101.172 64 101.172 63.7656C101.148 63.5547 100.914 62.5234 98.5 62.5C96.0862 62.4766 94 62.9688 93.7656 63.6016C93.5313 64.2344 93.0625 65.6875 92.7578 67.1875C92.3359 69.3906 87.9297 77.1953 85.4219 81.2969C84.6016 79.7031 83.8984 78.2969 83.7576 77.1716C83.5469 75.4844 83.2888 74.4529 83.5469 72.4375C83.8047 70.4216 84.9766 67.5625 84.9766 67.3281C84.9531 67.1172 84.7188 66.0859 82.3049 66.0625C79.8906 66.0391 77.8049 66.5313 77.5706 67.1641C77.3362 67.7969 77.0784 69.2969 76.5627 70.75C76.0703 72.2031 70.2109 85.2344 68.6875 88.6328C67.9141 90.3672 67.2346 91.75 66.7422 92.6875C66.25 93.625 66.7188 92.7578 66.6719 92.8516C66.25 93.6484 66.0156 94.0938 66.0156 94.0938V94.1174C65.6875 94.7034 65.3359 95.2656 65.1716 95.2656C65.0545 95.2656 64.8201 93.6953 65.2185 91.5393C66.0857 87.0156 68.1951 79.9612 68.1719 79.7034C68.1719 79.5862 68.5701 78.3438 66.8123 77.7112C65.1013 77.0784 64.4922 78.133 64.3513 78.133C64.2107 78.133 64.0935 78.508 64.0935 78.508C64.0935 78.508 65.992 70.563 60.4607 70.563C56.992 70.563 52.2107 74.3364 49.8435 77.7817C48.3435 78.602 45.156 80.3362 41.781 82.188C40.492 82.8911 39.156 83.6411 37.8904 84.3208L37.6328 84.0391C30.9297 76.8906 18.5313 71.8281 19.0469 62.2188C19.2344 58.7266 20.4531 49.5156 42.8596 38.3594C61.2112 29.2188 75.9065 31.7266 78.4609 37.3047C82.0938 45.2734 70.6094 60.0859 51.5315 62.2188C44.2659 63.0391 40.4453 60.2266 39.4846 59.1719C38.4768 58.0703 38.3362 58.0234 37.9612 58.2344C37.3518 58.5625 37.7268 59.5469 37.9612 60.1328C38.5237 61.6094 40.8674 64.2344 44.8518 65.5469C48.3438 66.6953 56.8752 67.3281 67.1877 63.3438C78.7424 58.8672 87.7659 46.4453 85.1174 36.0625C82.4221 25.4922 64.8909 22.0234 48.3206 27.9063C38.4531 31.4219 27.7656 36.9063 20.0781 44.1016C10.9375 52.6328 9.48438 60.0859 10.0938 63.1797C12.2268 74.2188 27.4375 81.4141 33.5313 86.7344C33.2266 86.8982 32.9453 87.0623 32.6875 87.2031C29.6406 88.7029 18.0391 94.7734 15.1328 101.195C11.8516 108.461 15.6484 113.688 18.1797 114.391C26.0078 116.57 34.0234 112.656 38.3594 106.211C42.6716 99.7656 42.1563 91.3984 40.1641 87.5781L40.0935 87.4375L42.4841 86.0313C44.0313 85.1172 45.5547 84.2734 46.8904 83.5466C46.1406 85.5857 45.6013 87.9998 45.3203 91.5154C44.9922 95.6406 46.6797 100.984 48.9063 103.094C49.8906 104.007 51.0625 104.031 51.7891 104.031C54.3672 104.031 55.5391 101.898 56.8281 99.3435C58.4219 96.2263 59.8281 92.617 59.8281 92.617C59.8281 92.617 58.0703 102.39 62.875 102.39C64.6328 102.39 66.3906 100.117 67.1875 98.9451V98.9685C67.1875 98.9685 67.2344 98.8982 67.3281 98.7341C67.4265 98.5887 67.5203 98.4403 67.6094 98.2891V98.2422C68.3125 97.0234 69.8828 94.2344 72.2266 89.6172C75.2498 83.6641 78.1563 76.2109 78.1563 76.2109C78.1563 76.2109 78.4375 78.0391 79.3047 81.0391C79.8201 82.8206 80.9451 84.7656 81.8123 86.6641C81.1091 87.6484 80.6873 88.2112 80.6873 88.2112L80.7107 88.2346C80.1484 88.9846 79.5154 89.7817 78.8594 90.5784C76.4688 93.4377 73.6094 96.6958 73.2344 97.6333C72.7891 98.7346 72.8828 99.5549 73.75 100.211C74.3828 100.68 75.5078 100.774 76.7031 100.68C78.8594 100.539 80.3594 100 81.1094 99.6721C82.2813 99.2502 83.6172 98.6174 84.9063 97.6799C87.25 95.9458 88.6797 93.4848 88.5391 90.2036C88.4688 88.3989 87.8828 86.6177 87.1563 84.9302C87.3672 84.6255 87.5784 84.3205 87.7891 83.9927C91.4922 78.5784 94.3516 72.6255 94.3516 72.6255C94.3516 72.6255 94.6328 74.4536 95.5 77.4536C95.9451 78.977 96.8359 80.6413 97.6328 82.282C94.1641 85.1179 91.9844 88.3991 91.2344 90.5554C89.8516 94.5398 90.9297 96.3445 92.9688 96.7663C93.8826 96.9538 95.1953 96.532 96.1795 96.1101C97.3982 95.7116 98.8748 95.0317 100.234 94.0241C102.578 92.2898 104.828 89.8757 104.711 86.6179C104.641 85.1179 104.242 83.6413 103.703 82.2351C106.656 81.0163 110.476 80.3132 115.328 80.8991C125.758 82.1179 127.82 88.6335 127.422 91.3523C127.024 94.0713 124.844 95.571 124.117 96.0398C123.391 96.4851 123.156 96.6494 123.227 96.9773C123.32 97.4697 123.648 97.446 124.281 97.3525C125.148 97.2116 129.766 95.1259 129.953 90.1106C130.234 83.6643 124.117 76.6331 113.266 76.7031ZM32.8281 103.82C29.3828 107.594 24.5313 109.023 22.4688 107.805C20.2422 106.516 21.1091 100.961 25.3516 96.9531C27.9297 94.5156 31.2813 92.2656 33.4844 90.8828C33.9766 90.5781 34.7266 90.1331 35.6172 89.5938C35.7578 89.5002 35.8516 89.4531 35.8516 89.4531C36.0156 89.3594 36.2031 89.2422 36.3906 89.125C37.9609 94.8438 36.4609 99.8594 32.8281 103.82ZM58.0234 86.6875C56.8281 89.6172 54.2969 97.1406 52.7734 96.7188C51.4607 96.3672 50.6641 90.6719 52.5154 85.0469C53.4529 82.2107 55.4451 78.8359 56.617 77.5232C58.5156 75.4138 60.5779 74.7107 61.0938 75.5779C61.7031 76.7031 58.7734 84.8594 58.0234 86.6875ZM78.8125 96.625C78.2969 96.8831 77.8281 97.0703 77.6172 96.9299C77.4531 96.8362 77.8279 96.4846 77.8279 96.4846C77.8279 96.4846 80.4295 93.6956 81.4607 92.4065C82.0466 91.6567 82.7498 90.7895 83.4998 89.8049V90.0862C83.5 93.4609 80.2656 95.7109 78.8125 96.625ZM94.8435 92.9688C94.4685 92.6875 94.5156 91.8203 95.781 89.1016C96.2734 88.0234 97.3982 86.2188 99.3435 84.5078C99.5779 85.2109 99.7188 85.8904 99.6951 86.5234C99.6719 90.7422 96.6719 92.3125 94.8435 92.9688Z" fill="#CF649A"/>
</g>
<defs>
<clipPath id="clip0_205_1389">
<rect width="120" height="90" fill="white" transform="translate(10 25)"/>
</clipPath>
</defs>
</svg>

<svg xmlns="http://www.w3.org/2000/svg" fill="none" viewBox="0 0 140 140">
  <g clip-path="url(#a)">
    <path fill="#CF649A" d="M113.27 76.7c-4.2.03-7.83 1.03-10.88 2.53-1.12-2.22-2.25-4.17-2.44-5.62-.2-1.69-.47-2.72-.2-4.73.25-2.02 1.42-4.88 1.42-5.11-.02-.22-.26-1.25-2.67-1.27-2.41-.02-4.5.47-4.73 1.1-.24.63-.7 2.09-1.01 3.59-.42 2.2-4.83 10-7.34 14.1-.82-1.59-1.52-3-1.66-4.12-.21-1.69-.47-2.72-.21-4.73.25-2.02 1.43-4.88 1.43-5.11-.03-.21-.26-1.24-2.68-1.27-2.4-.02-4.5.47-4.73 1.1-.23.64-.5 2.14-1 3.59-.5 1.45-6.36 14.48-7.88 17.88a72.37 72.37 0 0 1-1.95 4.06c-.49.94-.02.07-.07.16l-.65 1.24v.03c-.33.58-.68 1.15-.85 1.15-.12 0-.35-1.57.05-3.73.87-4.52 2.98-11.58 2.95-11.84 0-.11.4-1.36-1.36-1.99-1.7-.63-2.32.42-2.46.42-.14 0-.26.38-.26.38s1.9-7.95-3.63-7.95c-3.47 0-8.25 3.78-10.62 7.22l-8.06 4.4c-1.29.71-2.62 1.46-3.89 2.14l-.26-.28c-6.7-7.15-19.1-12.21-18.58-21.82.18-3.5 1.4-12.7 23.81-23.86 18.35-9.14 33.05-6.63 35.6-1.06 3.63 7.97-7.85 22.79-26.93 24.92-7.26.82-11.08-2-12.05-3.05-1-1.1-1.14-1.15-1.52-.94-.6.33-.23 1.32 0 1.9.56 1.48 2.9 4.1 6.9 5.42 3.48 1.15 12.02 1.78 22.33-2.2 11.55-4.48 20.58-16.9 17.93-27.29-2.7-10.57-20.23-14.04-36.8-8.15-9.87 3.51-20.55 9-28.24 16.2-9.14 8.52-10.6 15.98-9.99 19.07 2.14 11.04 17.35 18.23 23.44 23.55l-.84.47c-3.05 1.5-14.65 7.57-17.56 14-3.28 7.26.52 12.49 3.05 13.2 7.83 2.17 15.84-1.74 20.18-8.19 4.31-6.44 3.8-14.81 1.8-18.63l-.07-.14 2.4-1.4a143.7 143.7 0 0 1 4.4-2.5 29.18 29.18 0 0 0-1.57 7.98c-.33 4.12 1.36 9.46 3.59 11.57.98.92 2.15.94 2.88.94 2.58 0 3.75-2.13 5.04-4.69 1.6-3.11 3-6.72 3-6.72s-1.76 9.77 3.05 9.77c1.75 0 3.51-2.27 4.3-3.44v.02l.15-.24.28-.44v-.05c.7-1.22 2.27-4 4.62-8.62 3.02-5.96 5.93-13.4 5.93-13.4s.28 1.82 1.14 4.82c.52 1.78 1.65 3.73 2.51 5.62-.7.99-1.12 1.55-1.12 1.55l.02.02c-.56.75-1.2 1.55-1.85 2.35-2.4 2.86-5.25 6.12-5.63 7.05-.44 1.1-.35 1.92.52 2.58.63.47 1.76.56 2.95.47 2.16-.14 3.66-.68 4.4-1 1.18-.43 2.52-1.06 3.8-2a8.45 8.45 0 0 0 3.64-7.48c-.07-1.8-.66-3.58-1.38-5.27l.63-.94a98.94 98.94 0 0 0 6.56-11.36s.28 1.82 1.15 4.82c.45 1.53 1.34 3.2 2.13 4.83-3.47 2.84-5.65 6.12-6.4 8.28-1.38 3.98-.3 5.78 1.74 6.2.91.2 2.23-.23 3.21-.65 1.22-.4 2.7-1.08 4.05-2.09 2.35-1.73 4.6-4.14 4.48-7.4a14.2 14.2 0 0 0-1-4.38c2.95-1.22 6.77-1.93 11.62-1.34 10.43 1.22 12.49 7.73 12.1 10.45-.4 2.72-2.59 4.22-3.31 4.69-.73.45-.96.6-.9.94.1.49.43.47 1.06.37.87-.14 5.49-2.22 5.67-7.24.28-6.45-5.83-13.48-16.68-13.4Zm-80.44 27.12c-3.45 3.77-8.3 5.2-10.36 3.99-2.23-1.3-1.36-6.85 2.88-10.86a55.15 55.15 0 0 1 8.13-6.07l2.14-1.29.23-.14c.17-.1.35-.2.54-.33a14.95 14.95 0 0 1-3.56 14.7Zm25.2-17.13c-1.2 2.93-3.73 10.45-5.26 10.03-1.3-.35-2.1-6.05-.25-11.67a26.06 26.06 0 0 1 4.1-7.53c1.9-2.1 3.96-2.8 4.47-1.94.61 1.12-2.32 9.28-3.07 11.1Zm20.78 9.94c-.51.25-.98.44-1.2.3-.16-.1.22-.45.22-.45s2.6-2.78 3.63-4.07c.59-.75 1.29-1.62 2.04-2.6v.28c0 3.37-3.23 5.62-4.69 6.53Zm16.03-3.66c-.37-.28-.32-1.15.94-3.87a14.5 14.5 0 0 1 3.56-4.6c.24.71.38 1.39.36 2.02-.03 4.22-3.03 5.8-4.86 6.45Z"/>
  </g>
  <defs>
    <clipPath id="a">
      <path fill="#fff" d="M0 0h120v90H0z" transform="translate(10 25)"/>
    </clipPath>
  </defs>
</svg>
